icons/clock/clock-2.svg

<svg width="14" height="14" viewBox="0 0 14 14" fill="none"
    xmlns="http://www.w3.org/2000/svg">
    <circle cx="7" cy="7" r="4.5" stroke="green"/>
    <path d="M7 3.5C7.27614 3.5 7.5 3.72386 7.5 4V6.13379L8.48242 5.56738C8.72155 5.4294 9.02698 5.5109 9.16504 5.75C9.30302 5.989 9.22123 6.29442 8.98242 6.43262L7.25 7.43262C7.24359 7.43632 7.23599 7.43802 7.22949 7.44141C7.21076 7.45117 7.19191 7.46041 7.17188 7.46777C7.15898 7.47253 7.14589 7.47586 7.13281 7.47949C7.11452 7.48455 7.09621 7.48922 7.07715 7.49219C7.06152 7.49463 7.04595 7.49515 7.03027 7.49609C7.0202 7.4967 7.01023 7.5 7 7.5C6.99443 7.5 6.98893 7.49823 6.9834 7.49805C6.96495 7.49741 6.94691 7.49484 6.92871 7.49219C6.91419 7.4901 6.89983 7.48865 6.88574 7.48535C6.86874 7.48135 6.85244 7.47548 6.83594 7.46973C6.82102 7.46452 6.80622 7.45967 6.79199 7.45312C6.77911 7.44723 6.76726 7.43961 6.75488 7.43262C6.73867 7.42341 6.72205 7.4152 6.70703 7.4043C6.69583 7.39619 6.68635 7.38604 6.67578 7.37695C6.66245 7.36547 6.64877 7.3546 6.63672 7.3418C6.62662 7.33105 6.61762 7.31939 6.6084 7.30762C6.59625 7.29218 6.58451 7.27659 6.57422 7.25977C6.57216 7.25639 6.56937 7.25345 6.56738 7.25C6.56361 7.24347 6.56106 7.23612 6.55762 7.22949C6.54789 7.21078 6.53859 7.19188 6.53125 7.17188C6.52651 7.15901 6.52315 7.14587 6.51953 7.13281C6.5145 7.11456 6.50979 7.09618 6.50684 7.07715C6.5044 7.06155 6.50387 7.04592 6.50293 7.03027C6.50233 7.02022 6.5 7.01021 6.5 7V4C6.5 3.72386 6.72386 3.5 7 3.5Z" fill="red"/>
</svg>

<svg xmlns="http://www.w3.org/2000/svg" width="14" height="14" fill="none" viewBox="0 0 14 14"><circle cx="7" cy="7" r="4.5" stroke="green"/><path fill="red" d="M7 3.5a.5.5 0 0 1 .5.5v2.134l.982-.567a.5.5 0 1 1 .5.866l-1.732 1-.02.008-.058.027q-.02.007-.04.011l-.055.013q-.023.003-.047.004L7 7.5l-.017-.002-.054-.006q-.023-.002-.043-.007l-.05-.015q-.023-.007-.044-.017l-.037-.02-.048-.029-.031-.027-.04-.035-.028-.034-.034-.048-.007-.01-.01-.02-.026-.058-.011-.04-.013-.055q-.004-.023-.004-.047L6.5 7V4a.5.5 0 0 1 .5-.5"/></svg>
